assets/img/logo.svg

<svg fill="none" height="23" viewBox="0 0 131 23" width="131" xmlns="http://www.w3.org/2000/svg"><g fill="#fff"><path d="m48.2453.610807h2.6914c.573 0 1.101.3105 1.38.811363l7.7872 13.42263-.4583-12.65437c0-.8724.7077-1.579623 1.5801-1.579623h2.4928c.8728 0 1.5801.707223 1.5801 1.579623v18.22837c0 .8724-.7073 1.5796-1.5801 1.5796h-4.4056c-.5518 0-1.0638-.2882-1.3505-.76l-11.0676-18.22789c-.6389-1.05259.1187-2.399703 1.3505-2.399703z"/><path d="m51.2429 14.0097.3822 6.6842c.0329.7107-.5343 1.3045-1.2454 1.3045h-3.1001c-.6884 0-1.2469-.558-1.2469-1.2468v-12.30663c0-.80555 1.0473-1.1175 1.4881-.4437l3.5201 5.38363c.1221.1865.1918.402.202.6248z"/><path d="m27.0368 7.02958c-1.0851 1.08118-1.6276 2.50628-1.6276 4.27532 0 1.769.5425 3.1941 1.6276 4.2753 1.085 1.0811 2.5014 1.6212 4.2496 1.6212 1.7477 0 3.1641-.5401 4.2491-1.6212 1.0851-1.0812 1.6276-2.5063 1.6276-4.2753 0-1.76904-.5425-3.19414-1.6276-4.27532-1.085-1.08069-2.5014-1.62176-4.2491-1.62176-1.7482 0-3.1646.54107-4.2496 1.62176zm-4.1746 12.26492c-2.2205-2.2098-3.3307-4.873-3.3307-7.9896 0-3.11664 1.1102-5.77937 3.3307-7.98968 2.2195-2.20982 5.0281-3.31522 8.4242-3.31522 3.3946 0 6.2037 1.1054 8.4237 3.31522 2.2199 2.21031 3.3307 4.87304 3.3307 7.98968 0 3.1166-1.1108 5.7798-3.3307 7.9896-2.22 2.2103-5.0286 3.3153-8.4237 3.3153-3.3961 0-6.2047-1.1045-8.4242-3.3153z"/><path d="m114.746 7.02958c-1.085 1.08118-1.628 2.50628-1.628 4.27532 0 1.769.543 3.1941 1.628 4.2753 1.085 1.0811 2.501 1.6212 4.25 1.6212 1.747 0 3.164-.5401 4.249-1.6212 1.085-1.0812 1.627-2.5063 1.627-4.2753 0-1.76904-.542-3.19414-1.627-4.27532-1.085-1.08069-2.502-1.62176-4.249-1.62176-1.749 0-3.165.54107-4.25 1.62176zm-4.175 12.26492c-2.22-2.2098-3.33-4.873-3.33-7.9896 0-3.11664 1.11-5.77937 3.33-7.98968 2.22-2.20982 5.028-3.31522 8.425-3.31522 3.394 0 6.203 1.1054 8.423 3.31522 2.22 2.21031 3.331 4.87304 3.331 7.98968 0 3.1166-1.111 5.7798-3.331 7.9896-2.22 2.2103-5.028 3.3153-8.423 3.3153-3.397 0-6.205-1.1045-8.425-3.3153z"/><path d="m93.2596 21.9984h-3.293c-.6515 0-1.18-.528-1.18-1.1795v-19.02858c0-.65152.528-1.179513 1.18-1.179513h3.293c.6515 0 1.1795.527993 1.1795 1.179513v19.02858c0 .6515-.528 1.1795-1.1795 1.1795z"/><path d="m101.363 12.9261c1.657 2.4661 4.089 5.2713 5.751 7.1013.687.7576.148 1.971-.875 1.971h-3.761c-.334 0-.651-.1409-.875-.388-1.398-1.5447-5.9388-6.735-7.9345-10.7948 0 0 2.5833.0465 4.6013.2403 1.2604.1206 2.3862.8191 3.0932 1.8702z"/><path d="m96.295 7.40812 4.115-6.24534c.216-.343437.593-.551728.999-.551728h3.525c.949 0 1.51 1.064218.973 1.847008l-4.282 5.92758c-.197.2887-.513.47422-.861.50764l-3.3592.31729c-.9746.09252-1.631-.97413-1.1098-1.80245z"/><path d="m75.1342 5.14966c-.5609.5711-.8414 1.32434-.8414 2.25874 0 .93489.2805 1.68764.8414 2.25875.5609.57155 1.2929.85685 2.1963.85685.9039 0 1.6358-.2853 2.1967-.85685.5609-.57111.8414-1.32386.8414-2.25875-.0005-.9344-.2805-1.68764-.8414-2.25874-.5609-.57111-1.2928-.8569-2.1967-.8569-.9034 0-1.6354.28579-2.1963.8569zm-3.3995 7.49464c-1.475-1.4484-2.2122-3.19368-2.2122-5.2359s.7372-3.78702 2.2122-5.23537c1.4745-1.448348 3.3399-2.1725236 5.5958-2.1725236 2.2558 0 4.1212.7241756 5.5962 2.1725236 1.475 1.44835 2.2123 3.19315 2.2123 5.23537s-.7373 3.7875-2.2123 5.2359c-1.475 1.4483-3.3404 2.172-5.5962 2.1725-2.2559 0-4.1213-.7242-5.5958-2.1725z"/><path d="m69.7368 20.8189v-2.8347c0-.6515.528-1.1795 1.1795-1.1795l12.8288-.0005c.6515 0 1.1795.5285 1.1795 1.18v2.8347c0 .6515-.528 1.1795-1.1795 1.1795h-12.8288c-.6515 0-1.1795-.528-1.1795-1.1795z"/><path d="m4.47293 21.9984h-3.29294c-.651512 0-1.17999-.528-1.17999-1.1795v-19.02858c0-.65152.527994-1.179513 1.17999-1.179513h3.29294c.65151 0 1.17951.527993 1.17951 1.179513v19.02858c0 .6515-.528 1.1795-1.17951 1.1795z"/><path d="m12.576 12.9261c1.6571 2.4661 4.0893 5.2713 5.7513 7.1013.6873.7576.1482 1.971-.8749 1.971h-3.7608c-.3338 0-.6511-.1409-.8748-.388-1.3985-1.5447-5.93925-6.735-7.93496-10.7948 0 0 2.58329.0465 4.60129.2403 1.26037.1206 2.38667.8191 3.09287 1.8702z"/><path d="m7.50815 7.40812 4.11545-6.24534c.2156-.343437.5929-.551728.9983-.551728h3.525c.9494 0 1.5099 1.064218.9732 1.847008l-4.2816 5.92758c-.1977.2887-.5135.47422-.8618.50764l-3.35879.31729c-.97461.09252-1.63097-.97413-1.10976-1.80245z"/></g></svg>

<svg width="131" height="23" viewBox="0 0 131 23" fill="none" xmlns="http://www.w3.org/2000/svg">
<path d="M48.2453 0.610807H50.9367C51.5097 0.610807 52.0377 0.921307 52.3167 1.42217L60.1039 14.8448L59.6456 2.19043C59.6456 1.31803 60.3533 0.610807 61.2257 0.610807H63.7185C64.5913 0.610807 65.2986 1.31803 65.2986 2.19043V20.4188C65.2986 21.2912 64.5913 21.9984 63.7185 21.9984H59.3129C58.7611 21.9984 58.2491 21.7102 57.9624 21.2384L46.8948 3.01051C46.2559 1.95792 47.0135 0.610807 48.2453 0.610807Z" fill="white"/>
<path d="M51.2429 14.0097L51.6251 20.6939C51.658 21.4046 51.0908 21.9984 50.3797 21.9984H47.2796C46.5912 21.9984 46.0327 21.4404 46.0327 20.7516V8.44497C46.0327 7.63942 47.08 7.32747 47.5208 8.00127L51.0409 13.3849C51.163 13.5714 51.2327 13.7869 51.2429 14.0097Z" fill="white"/>
<path d="M27.0368 7.02958C25.9517 8.11076 25.4092 9.53586 25.4092 11.3049C25.4092 13.0739 25.9517 14.499 27.0368 15.5802C28.1218 16.6613 29.5382 17.2014 31.2864 17.2014C33.0341 17.2014 34.4505 16.6613 35.5355 15.5802C36.6206 14.499 37.1631 13.0739 37.1631 11.3049C37.1631 9.53586 36.6206 8.11076 35.5355 7.02958C34.4505 5.94889 33.0341 5.40782 31.2864 5.40782C29.5382 5.40782 28.1218 5.94889 27.0368 7.02958ZM22.8622 19.2945C20.6417 17.0847 19.5315 14.4215 19.5315 11.3049C19.5315 8.18826 20.6417 5.52553 22.8622 3.31522C25.0817 1.1054 27.8903 0 31.2864 0C34.681 0 37.4901 1.1054 39.7101 3.31522C41.93 5.52553 43.0408 8.18826 43.0408 11.3049C43.0408 14.4215 41.93 17.0847 39.7101 19.2945C37.4901 21.5048 34.6815 22.6098 31.2864 22.6098C27.8903 22.6098 25.0817 21.5053 22.8622 19.2945Z" fill="white"/>
<path d="M114.746 7.02958C113.661 8.11076 113.118 9.53586 113.118 11.3049C113.118 13.0739 113.661 14.499 114.746 15.5802C115.831 16.6613 117.247 17.2014 118.996 17.2014C120.743 17.2014 122.16 16.6613 123.245 15.5802C124.33 14.499 124.872 13.0739 124.872 11.3049C124.872 9.53586 124.33 8.11076 123.245 7.02958C122.16 5.94889 120.743 5.40782 118.996 5.40782C117.247 5.40782 115.831 5.94889 114.746 7.02958ZM110.571 19.2945C108.351 17.0847 107.241 14.4215 107.241 11.3049C107.241 8.18826 108.351 5.52553 110.571 3.31522C112.791 1.1054 115.599 0 118.996 0C122.39 0 125.199 1.1054 127.419 3.31522C129.639 5.52553 130.75 8.18826 130.75 11.3049C130.75 14.4215 129.639 17.0847 127.419 19.2945C125.199 21.5048 122.391 22.6098 118.996 22.6098C115.599 22.6098 112.791 21.5053 110.571 19.2945Z" fill="white"/>
<path d="M93.2596 21.9984H89.9666C89.3151 21.9984 88.7866 21.4704 88.7866 20.8189V1.79032C88.7866 1.1388 89.3146 0.610807 89.9666 0.610807H93.2596C93.9111 0.610807 94.4391 1.1388 94.4391 1.79032V20.8189C94.4391 21.4704 93.9111 21.9984 93.2596 21.9984Z" fill="white"/>
<path d="M101.363 12.9261C103.02 15.3922 105.452 18.1974 107.114 20.0274C107.801 20.785 107.262 21.9984 106.239 21.9984H102.478C102.144 21.9984 101.827 21.8575 101.603 21.6104C100.205 20.0657 95.6642 14.8754 93.6685 10.8156C93.6685 10.8156 96.2518 10.8621 98.2698 11.0559C99.5302 11.1765 100.656 11.875 101.363 12.9261Z" fill="white"/>
<path d="M96.295 7.40812L100.41 1.16278C100.626 0.819343 101.003 0.611052 101.409 0.611052H104.934C105.883 0.611052 106.444 1.67527 105.907 2.45806L101.625 8.38564C101.428 8.67434 101.112 8.85986 100.764 8.89328L97.4048 9.21057C96.4302 9.30309 95.7738 8.23644 96.295 7.40812Z" fill="white"/>
<path d="M75.1342 5.14966C74.5733 5.72076 74.2928 6.474 74.2928 7.4084C74.2928 8.34329 74.5733 9.09604 75.1342 9.66715C75.6951 10.2387 76.4271 10.524 77.3305 10.524C78.2344 10.524 78.9663 10.2387 79.5272 9.66715C80.0881 9.09604 80.3686 8.34329 80.3686 7.4084C80.3681 6.474 80.0881 5.72076 79.5272 5.14966C78.9663 4.57855 78.2344 4.29276 77.3305 4.29276C76.4271 4.29276 75.6951 4.57855 75.1342 5.14966ZM71.7347 12.6443C70.2597 11.1959 69.5225 9.45062 69.5225 7.4084C69.5225 5.36618 70.2597 3.62138 71.7347 2.17303C73.2092 0.724682 75.0746 0.000506401 77.3305 0.000506401C79.5863 0.000506401 81.4517 0.724682 82.9267 2.17303C84.4017 3.62138 85.139 5.36618 85.139 7.4084C85.139 9.45062 84.4017 11.1959 82.9267 12.6443C81.4517 14.0926 79.5863 14.8163 77.3305 14.8168C75.0746 14.8168 73.2092 14.0926 71.7347 12.6443Z" fill="white"/>
<path d="M69.7368 20.8189V17.9842C69.7368 17.3327 70.2648 16.8047 70.9163 16.8047L83.7451 16.8042C84.3966 16.8042 84.9246 17.3327 84.9246 17.9842V20.8189C84.9246 21.4704 84.3966 21.9984 83.7451 21.9984H70.9163C70.2648 21.9984 69.7368 21.4704 69.7368 20.8189Z" fill="white"/>
<path d="M4.47293 21.9984H1.17999C0.528478 21.9984 0 21.4704 0 20.8189V1.79032C0 1.1388 0.527994 0.610807 1.17999 0.610807H4.47293C5.12444 0.610807 5.65244 1.1388 5.65244 1.79032V20.8189C5.65244 21.4704 5.12444 21.9984 4.47293 21.9984Z" fill="white"/>
<path d="M12.576 12.9261C14.2331 15.3922 16.6653 18.1974 18.3273 20.0274C19.0146 20.785 18.4755 21.9984 17.4524 21.9984H13.6916C13.3578 21.9984 13.0405 21.8575 12.8168 21.6104C11.4183 20.0657 6.87755 14.8754 4.88184 10.8156C4.88184 10.8156 7.46513 10.8621 9.48313 11.0559C10.7435 11.1765 11.8698 11.875 12.576 12.9261Z" fill="white"/>
<path d="M7.50815 7.40812L11.6236 1.16278C11.8392 0.819343 12.2165 0.611052 12.6219 0.611052H16.1469C17.0963 0.611052 17.6568 1.67527 17.1201 2.45806L12.8385 8.38564C12.6408 8.67434 12.325 8.85986 11.9767 8.89328L8.61791 9.21057C7.6433 9.30309 6.98694 8.23644 7.50815 7.40812Z" fill="white"/>
</svg>
